Newaita-dark/actions/22/align-horizontal-top-out.svg

<svg height="22" viewBox="0 0 22 22" width="22" xmlns="http://www.w3.org/2000/svg"><g fill="#e0e0e0"><path d="m20.011719 11.085938c0-.25-.203125-.453126-.457031-.453126h-17.28125c-.25 0-.453126.203126-.453126.453126 0 .253906.203126.457031.453126.457031h17.28125c.253906 0 .457031-.203125.457031-.457031zm0 0"/><path d="m13.644531 19.273438c-1.007812 0-1.820312-.8125-1.820312-1.820313v-2.726563c0-1.007812.8125-1.820312 1.820312-1.820312h2.726563c1.007812 0 1.820312.8125 1.820312 1.820312v2.726563c0 1.007813-.8125 1.820313-1.820312 1.820313zm.453125-1.820313h1.820313c.25 0 .453125-.203125.453125-.453125v-1.820312c0-.25-.203125-.453126-.453125-.453126h-1.820313c-.25 0-.453125.203126-.453125.453126v1.820312c0 .25.203125.453125.453125.453125zm0 0"/><path d="m5.457031 20.183594c-1.007812 0-1.820312-.8125-1.820312-1.820313v-3.636719c0-1.007812.8125-1.820312 1.820312-1.820312h2.730469c1.007812 0 1.816406.8125 1.816406 1.820312v3.636719c0 1.007813-.808594 1.820313-1.816406 1.820313zm.457031-1.820313h1.816407c.253906 0 .457031-.203125.457031-.453125v-2.730468c0-.25-.203125-.453126-.457031-.453126h-1.816407c-.253906 0-.457031.203126-.457031.453126v2.730468c0 .25.203125.453125.457031.453125zm0 0"/><path d="m18.191406 7.449219c0 1.007812-.8125 1.820312-1.820312 1.820312h-3.636719c-1.007813 0-1.820313-.8125-1.820313-1.820312v-2.730469c0-1.007812.8125-1.816406 1.820313-1.816406h3.636719c1.007812 0 1.820312.808594 1.820312 1.816406zm0 0"/></g></svg>

<svg xmlns="http://www.w3.org/2000/svg" xmlns:xlink="http://www.w3.org/1999/xlink" width="22px" height="22px" viewBox="0 0 22 22" version="1.1">
<g id="surface1">
     <defs>
  <style id="current-color-scheme" type="text/css">
   .ColorScheme-Text { color:#eeeeee; } .ColorScheme-Highlight { color:#424242; }
  </style>
 </defs>
<path style="fill:currentColor" class="ColorScheme-Text" d="M 20.011719 11.085938 C 20.011719 10.835938 19.808594 10.632812 19.554688 10.632812 L 2.273438 10.632812 C 2.023438 10.632812 1.820312 10.835938 1.820312 11.085938 C 1.820312 11.339844 2.023438 11.542969 2.273438 11.542969 L 19.554688 11.542969 C 19.808594 11.542969 20.011719 11.339844 20.011719 11.085938 Z M 20.011719 11.085938 "/>
     <defs>
  <style id="current-color-scheme" type="text/css">
   .ColorScheme-Text { color:#eeeeee; } .ColorScheme-Highlight { color:#424242; }
  </style>
 </defs>
<path style="fill:currentColor" class="ColorScheme-Text" d="M 13.644531 19.273438 C 12.636719 19.273438 11.824219 18.460938 11.824219 17.453125 L 11.824219 14.726562 C 11.824219 13.71875 12.636719 12.90625 13.644531 12.90625 L 16.371094 12.90625 C 17.378906 12.90625 18.191406 13.71875 18.191406 14.726562 L 18.191406 17.453125 C 18.191406 18.460938 17.378906 19.273438 16.371094 19.273438 Z M 14.097656 17.453125 L 15.917969 17.453125 C 16.167969 17.453125 16.371094 17.25 16.371094 17 L 16.371094 15.179688 C 16.371094 14.929688 16.167969 14.726562 15.917969 14.726562 L 14.097656 14.726562 C 13.847656 14.726562 13.644531 14.929688 13.644531 15.179688 L 13.644531 17 C 13.644531 17.25 13.847656 17.453125 14.097656 17.453125 Z M 14.097656 17.453125 "/>
     <defs>
  <style id="current-color-scheme" type="text/css">
   .ColorScheme-Text { color:#eeeeee; } .ColorScheme-Highlight { color:#424242; }
  </style>
 </defs>
<path style="fill:currentColor" class="ColorScheme-Text" d="M 5.457031 20.183594 C 4.449219 20.183594 3.636719 19.371094 3.636719 18.363281 L 3.636719 14.726562 C 3.636719 13.71875 4.449219 12.90625 5.457031 12.90625 L 8.1875 12.90625 C 9.195312 12.90625 10.003906 13.71875 10.003906 14.726562 L 10.003906 18.363281 C 10.003906 19.371094 9.195312 20.183594 8.1875 20.183594 Z M 5.914062 18.363281 L 7.730469 18.363281 C 7.984375 18.363281 8.1875 18.160156 8.1875 17.910156 L 8.1875 15.179688 C 8.1875 14.929688 7.984375 14.726562 7.730469 14.726562 L 5.914062 14.726562 C 5.660156 14.726562 5.457031 14.929688 5.457031 15.179688 L 5.457031 17.910156 C 5.457031 18.160156 5.660156 18.363281 5.914062 18.363281 Z M 5.914062 18.363281 "/>
     <defs>
  <style id="current-color-scheme" type="text/css">
   .ColorScheme-Text { color:#eeeeee; } .ColorScheme-Highlight { color:#424242; }
  </style>
 </defs>
<path style="fill:currentColor" class="ColorScheme-Text" d="M 18.191406 7.449219 C 18.191406 8.457031 17.378906 9.269531 16.371094 9.269531 L 12.734375 9.269531 C 11.726562 9.269531 10.914062 8.457031 10.914062 7.449219 L 10.914062 4.71875 C 10.914062 3.710938 11.726562 2.902344 12.734375 2.902344 L 16.371094 2.902344 C 17.378906 2.902344 18.191406 3.710938 18.191406 4.71875 Z M 18.191406 7.449219 "/>
</g>
</svg>
